X: 581
T: Four Cent Cotton
B: jims roots
M:4/4
L:1/8
Q: 1/4=100
K:C
V:1 
"C"GcAc [e2e][e2e] | g2ag edc2 | [e4e] [e3e]d | "G"cAGE "C"DC3 |
C2cd [e2e][e2e] | g2ag edc2 | [e4e] e3d | "G"cAGE "C"DC3 ||
|: "C"C2CD EFGA | cAcd cAGc | [e2e][e2e] dcAB | cAGE DC3 :|
% abcbook-tune_id 6298c25db163f12ebb5eaa00


% abcbook-boost 0
% abcbook-tablature 
% abcbook-transpose 
% abcbook-lastupdated 1654178398113
% abcbook-soundfonts 
% abcbook-repeats 1


